build/img/comfort-payment.svg

<svg width="323" height="225" viewBox="0 0 323 225" fill="none" xmlns="http://www.w3.org/2000/svg"><g clip-path="url(#clip0)"><path fill-rule="evenodd" clip-rule="evenodd" d="M96 2h97c5.523 0 10 4.477 10 10v47H86V12c0-5.523 4.477-10 10-10zm29 59h39v32h-39V61zm41 0v32h37V61h-37zm-41 34h39v33h-39V95zm-2 33V95H86v33h37zm-37 2h37v34H96c-5.523 0-10-4.477-10-10v-24zm39 0h39v34h-39v-34zm41-35v69h27c5.523 0 10-4.477 10-10V95h-37zm-43-34H86v32h37V61zM84 12c0-6.627 5.373-12 12-12h97c6.627 0 12 5.373 12 12v142c0 6.627-5.373 12-12 12H96c-6.627 0-12-5.373-12-12V12z" fill="#000"/><path d="M0 16l55.5 77.5L180 33l128.5 191m0 0l2-19.5m-2 19.5l-20-4" stroke="#000" stroke-width="2" stroke-linecap="round" stroke-linejoin="round"/><path d="M0 16l55.5 77.5L180 33l128.5 191m0 0l2-19.5m-2 19.5l-20-4" stroke="url(#paint0_linear)" stroke-width="2" stroke-linecap="round" stroke-linejoin="round"/><circle cx="254" cy="100" r="69" fill="#fff"/><path fill-rule="evenodd" clip-rule="evenodd" d="M321 100c0 37.003-29.997 67-67 67s-67-29.997-67-67 29.997-67 67-67 67 29.997 67 67zm2 0c0 38.108-30.892 69-69 69-38.108 0-69-30.892-69-69 0-38.108 30.892-69 69-69 38.108 0 69 30.892 69 69zm-61.5-33H238v41h23.5c11.322 0 20.5-9.178 20.5-20.5S272.822 67 261.5 67zM238 65h-2v43h-11v2h11v8h-11v2h11v21.091h2V120h30v-2h-30v-8h23.5c12.426 0 22.5-10.074 22.5-22.5S273.926 65 261.5 65H238z" fill="#000"/></g><defs><linearGradient id="paint0_linear" x1="-2.05" y1="30.407" x2="191.268" y2="308.929" gradientUnits="userSpaceOnUse"><stop stop-color="#00ADEB"/><stop offset="1" stop-color="#DF61FE"/></linearGradient><clipPath id="clip0"><path fill="#fff" d="M0 0h323v225H0z"/></clipPath></defs></svg>

<svg width="323" height="225" viewBox="0 0 323 225" fill="none" xmlns="http://www.w3.org/2000/svg">
<g clip-path="url(#clip0)">
<path fill-rule="evenodd" clip-rule="evenodd" d="M96 2H193C198.523 2 203 6.47715 203 12V59L166 59H164H125H123L86 59V12C86 6.47715 90.4771 2 96 2ZM125 61H164L164 93H125L125 61ZM166 61L166 93H203V61H166ZM125 95H164L164 128H125L125 95ZM123 128L123 95H86V128H123ZM86 130H123L123 164H96C90.4771 164 86 159.523 86 154V130ZM125 130H164L164 164H125L125 130ZM166 95L166 164H193C198.523 164 203 159.523 203 154V95H166ZM123 61H86V93H123L123 61ZM84 12C84 5.37259 89.3726 0 96 0H193C199.627 0 205 5.37258 205 12V154C205 160.627 199.627 166 193 166H96C89.3726 166 84 160.627 84 154V12Z" fill="black"/>
<path d="M0 16L55.5 93.5L180 33L308.5 224M308.5 224L310.5 204.5M308.5 224L288.5 220" stroke="black" stroke-width="2" stroke-linecap="round" stroke-linejoin="round"/>
<path d="M0 16L55.5 93.5L180 33L308.5 224M308.5 224L310.5 204.5M308.5 224L288.5 220" stroke="url(#paint0_linear)" stroke-width="2" stroke-linecap="round" stroke-linejoin="round"/>
<circle cx="254" cy="100" r="69" fill="white"/>
<path fill-rule="evenodd" clip-rule="evenodd" d="M321 100C321 137.003 291.003 167 254 167C216.997 167 187 137.003 187 100C187 62.9969 216.997 33 254 33C291.003 33 321 62.9969 321 100ZM323 100C323 138.108 292.108 169 254 169C215.892 169 185 138.108 185 100C185 61.8924 215.892 31 254 31C292.108 31 323 61.8924 323 100ZM261.5 67H238L238 108H261.5C272.822 108 282 98.8218 282 87.5C282 76.1782 272.822 67 261.5 67ZM238 65H236V67L236 108H225V110H236V118H225V120H236L236 141.091H238L238 120L268 120V118L238 118V110L250 110H261.5C273.926 110 284 99.9264 284 87.5C284 75.0736 273.926 65 261.5 65H238Z" fill="black"/>
</g>
<defs>
<linearGradient id="paint0_linear" x1="-2.05042" y1="30.4074" x2="191.268" y2="308.929" gradientUnits="userSpaceOnUse">
<stop stop-color="#00ADEB"/>
<stop offset="1" stop-color="#DF61FE"/>
</linearGradient>
<clipPath id="clip0">
<rect width="323" height="225" fill="white"/>
</clipPath>
</defs>
</svg>
